packages/ckeditor5-icons/theme/icons/document.svg

<svg viewBox="0 0 10 12" xmlns="http://www.w3.org/2000/svg">
<path fill-rule="evenodd" clip-rule="evenodd" d="M0.59082 1.01995C0.59082 0.705149 0.846017 0.449951 1.16082 0.449951H5.72722L9.29082 4.01356V10.98C9.29082 11.2948 9.03562 11.55 8.72082 11.55H1.16082C0.846015 11.55 0.59082 11.2948 0.59082 10.98V1.01995ZM1.49082 1.34995V10.65H8.39082V4.64995H5.66082C5.34602 4.64995 5.09082 4.39475 5.09082 4.07995V1.34995H1.49082ZM5.99082 1.98635L7.75442 3.74995H5.99082V1.98635Z"/>
</svg>

<svg xmlns="http://www.w3.org/2000/svg" viewBox="0 0 10 12"><path fill-rule="evenodd" d="M.59 1.02a.57.57 0 0 1 .57-.57h4.567l3.564 3.564v6.966a.57.57 0 0 1-.57.57H1.16a.57.57 0 0 1-.57-.57zm.9.33v9.3h6.9v-6H5.66a.57.57 0 0 1-.57-.57V1.35zm4.5.636L7.755 3.75H5.991z" clip-rule="evenodd"/></svg>
